!!!!SEGMENT: pl-sa--552-a-ix-32--015_anonim--keyboard-piece.krn
!!!id: 18xx:526
!!!COM: Anonim
!!!COM-rism: pe30004985
!!!CDT:
!!!CNT:
!!!OTL: Keyboard piece
!!!PDT:
!!!SMS-siglum: PL-SA
!!!SMS-shelfmark: 552/A IX 32
!!!NIFC-rismID: 1001069528
!!!URL-scan: http://bc.bdsandomierz.pl/dlibra/publication/1308/edition/1276/content
!!!ONB-nifc: Str. 8, s. 5-6
!!!SMS-variant:
!!!SMS-altvar:
**kern	**kern
*part1	*part1
*staff2	*staff1
*I"Piano	*
*I'Pno.	*
*clefF4	*clefG2
*k[e-b-a-]	*k[e-b-a-]
=1	=1
*clefG2	*
!LO:TX:a:t=P:problem:brak oznaczenia metrum	!LO:TX:a:t=P:problem:brak oznaczenia metrum
!LO:N:vis=8.	!LO:TX:a:i:t=Alternatif
4.f 4.d 4.B-/	16b-\LL
.	16cc\
.	16dd\
.	16ee-\
.	16ee-\
.	16gg\JJ
=2	=2
!LO:N:vis=8.	!
4.g 4.e- 4.B-/	8ee-\L
.	8qqff/
.	16ee-\L
.	16dd\J
.	8ee-\J
=3	=3
!LO:N:vis=8.	!
4.f 4.d 4.B-/	16ff\LL
.	16gg\
.	16aa-\
.	16bb-\
.	16ccc\
.	16bb-\JJ
=4	=4
!LO:N:vis=8.	!
4.g 4.e- 4.B-/	4bb-\
.	16gg\LL
.	16ee-\JJ
=5	=5
!LO:N:vis=8.	!
4.f 4.d 4.B-/	16b-\LL
.	16cc\
.	16dd\
.	16ee-\
.	16ff\
.	16gg\JJ
=6	=6
!LO:N:vis=8.	!
4.g 4.e- 4.B-/	8ee-\L
.	8qff/
.	16ee-\L
.	16dd\J
.	8ee-\J
!!LO:LB:g=original
=7	=7
*clefF3	*
!LO:CL:ed	!
*clefG2	*
!LO:TX:a:t=P:problem:na początku linijki omyłkowo wpisany klucz barytonowy	!
.	8qqff/
!LO:N:vis=8.	!
4.f 4.e- 4.c/	8ee-\L
.	16dd\L
.	16cc\
.	16b-\
.	16an\JJ
=8	=8
*tremolo	*
8d 8B-/L	4b-\
8d 8B-/	.
8d 8B-/J	8b-\
*clefF3	*
=9||	=9||
!LO:CL:ed	!
*clefF4	*
*^	*
!LO:TX:a:t=P:problem:omyłkowo wpisany klucz barytonowy	!	!
8BB-/	8BB-\	8b-\L
8B-\L	4ryy	16cc\L
.	.	16b-\
8c\J	.	16an\
.	.	16b-\JJ
=10	=10	=10
*rep	*rep	*
8BB-/	8BB-\	4gg 4b-\
8B-\L	4ryy	.
8c\J	.	8ee- 8g\
*Xrep	*Xrep	*
=11	=11	=11
*rep	*rep	*
8BB-/	8BB-\	8ee-L 8g\
8B-\L	4ryy	8dd\
8c\J	.	8cc\J
*Xrep	*Xrep	*
=12	=12	=12
*rep	*rep	*
8BB-/	8BB-\	4b- 4d/
8B-\L	4ryy	.
8c\J	.	8a-X/
*Xrep	*Xrep	*
=13	=13	=13
*rep	*rep	*
8BB-/	8BB-\	8gL 8e-/
8B-\L	4ryy	16a-/L
.	.	16g/
8c\J	.	16f/
.	.	16g/JJ
*Xrep	*Xrep	*
=14	=14	=14
*rep	*rep	*
8BB-/	8BB-\	8a-L 8f/
8B-\L	4ryy	16b-/L
.	.	16a-/
8c\J	.	16g/
.	.	16g/JJ
*Xrep	*Xrep	*
=15	=15	=15
*rep	*rep	*
8BB-/	8BB-\	8b-L 8g/
8B-\L	4ryy	8a- 8f/
8c\J	.	8gJ 8e-/
*Xrep	*Xrep	*
=16	=16	=16
*rep	*rep	*
8BB-/	8BB-\	4g 4e-/
8B-\L	4ryy	.
8c\J	.	8f 8d/
*Xrep	*Xrep	*
*v	*v	*
=17||	=17||
*clefG2	*
!LO:N:vis=8.	!
4.a- 4.f 4.B-/	16ddLL 16b-\
.	16cc\
.	16dd\
.	16ee-\
.	16ff\
.	16gg\JJ
=18	=18
!LO:N:vis=8.	!
4.g 4.e- 4.B-/	8ee-\L
.	8qff/
.	16ee-\L
.	16dd\J
.	8ee-\J
=19	=19
!LO:N:vis=8.	!
4.f 4.d 4.B-/	16ff\LL
.	16gg\
.	16aa-\
.	16bb-\
.	16ccc\
.	16bb-\JJ
=20	=20
!LO:N:vis=8.	!
4.g 4.e- 4.B-/	4bb-\
.	16gg\LL
.	16ee-\JJ
=21	=21
!LO:N:vis=8.	!
4.a- 4.f 4.B-/	16b-\LL
.	16cc\
.	16dd\
.	16ee-\
.	16ff\
.	16gg\JJ
=22	=22
!LO:N:vis=8.	!
4.g 4.e- 4.B-/	8ee-\L
.	8qff/
.	16ee-\L
.	16dd\J
.	8ee-\J
=23	=23
!LO:N:vis=8.	!
4f 4c 4A-/	16ff\LL
.	16gg\
.	16aa-\
.	16ff\
8f 8B-/	16dd\
.	16ff\JJ
=24	=24
8g 8e-/	16ee-\LL
.	16gg\JJ
!LO:TX:b:i:t=V&colon; Subitto Coda	!LO:TX:b:i:t=Valtz Da Capo al fine
4g 4e-/	4ee-\
==	==
*-	*-
!!!system-decoration: {s1,s2}
!!!ENC: Marta Lawrence
!!!END: 2020-12-12
!!!ENC:Anastazja Marusiak
!!!END:2020-06-18
